COLOR/action 16/16/edit-delete.svg

<svg height="16.001" width="16" xmlns="http://www.w3.org/2000/svg"><circle cx="-7.999996" cy="-8.00102" fill="#da1636" r="7.99998" stroke-width="1.066664" transform="scale(-1)"/><g transform="matrix(0 -1.066664 -1.066664 0 -.533316 -.532327)"><circle cx="-8.00005" cy="-8" opacity=".1" r="5.769231"/><circle cx="-8.00005" cy="-8" fill="#f7f7f7" r="5.769231"/></g><path d="m7.999996.0010052a7.9999797 7.9999797 0 0 0 -7.99998 7.9999797 7.9999797 7.9999797 0 0 0 .01042.3062493 7.9999797 7.9999797 0 0 1 7.989564-7.77289704 7.9999797 7.9999797 0 0 1 7.989563 7.69373044 7.9999797 7.9999797 0 0 0 .01042-.2270827 7.9999797 7.9999797 0 0 0 -7.99998-7.9999797z" fill="#fff" opacity=".3" stroke-width="1.066664"/><path d="m8.000016 16.000999a7.9999797 7.9999797 0 0 0 7.99998-7.9999792 7.9999797 7.9999797 0 0 0 -.01045-.3062499 7.9999797 7.9999797 0 0 1 -7.989563 7.7728971 7.9999797 7.9999797 0 0 1 -7.989563-7.6937304 7.9999797 7.9999797 0 0 0 -.01042.2270832 7.9999797 7.9999797 0 0 0 7.999979 7.9999792z" opacity=".2" stroke-width="1.066664"/><g fill-rule="evenodd" stroke-width="1.066923"><path d="m5.07921 3.733262-1.34699 1.3469899 2.779014 2.7648236c.08537.08645.08537.2254728 0 .3119255l-2.779014 2.764823 1.34699 1.34699 2.764824-2.764823c.08645-.085373.225473-.085373.311925 0l2.764823 2.764823 1.34699-1.34699-2.764823-2.764823c-.08537-.086449-.08537-.2254727 0-.3119255l2.764823-2.7648236-1.34699-1.3469899-2.764823 2.7648235c-.08645.085373-.225472.085373-.311925 0z" fill="#3b3b3b"/><path d="m5.0800781 3.7324219-1.3476562 1.3476562.25.25 1.0976562-1.0957031 2.7636719 2.7636719c.086453.085373.22605.085373.3125 0l2.763672-2.7636719 1.097656 1.0957031.25-.25-1.347656-1.3476562-2.763672 2.765625c-.08645.085373-.226047.085373-.3125 0zm1.3359375 4.5175781-2.6835937 2.671875.25.25 2.5292969-2.515625c.0853699-.0864527.08537-.2240969 0-.3105469zm3.1816406 0-.09375.0957031c-.0853699.0864528-.0853699.2240979 0 .3105469l2.5136718 2.515625.25-.25z" fill="#fff" opacity=".3"/><path d="m10.920782 12.268814 1.347656-1.347656-.25-.25-1.097656 1.095703-2.7636716-2.763672c-.086453-.085373-.22605-.085373-.3125 0l-2.763672 2.763672-1.097656-1.095703-.25.25 1.347656 1.347656 2.763672-2.765625c.08645-.085373.226047-.085373.3125 0zm-1.3359372-4.5175781 2.6835932-2.6718755-.25-.25-2.5292964 2.5156255c-.08537.086453-.08537.2240969 0 .3105469zm-3.1816406 0 .09375-.095703c.08537-.086453.08537-.2240979 0-.3105469l-2.5136718-2.5156255-.25.25z" opacity=".2"/></g></svg>

<?xml version="1.0" encoding="UTF-8" standalone="no"?>
<svg
   xmlns:dc="http://purl.org/dc/elements/1.1/"
   xmlns:cc="http://creativecommons.org/ns#"
   xmlns:rdf="http://www.w3.org/1999/02/22-rdf-syntax-ns#"
   xmlns:svg="http://www.w3.org/2000/svg"
   xmlns="http://www.w3.org/2000/svg"
   xmlns:sodipodi="http://sodipodi.sourceforge.net/DTD/sodipodi-0.dtd"
   xmlns:inkscape="http://www.inkscape.org/namespaces/inkscape"
   height="16.001"
   width="16"
   version="1.1"
   id="svg14"
   sodipodi:docname="edit-delete.svg"
   inkscape:version="0.92.4 (5da689c313, 2019-01-14)">
  <metadata
     id="metadata20">
    <rdf:RDF>
      <cc:Work
         rdf:about="">
        <dc:format>image/svg+xml</dc:format>
        <dc:type
           rdf:resource="http://purl.org/dc/dcmitype/StillImage" />
      </cc:Work>
    </rdf:RDF>
  </metadata>
  <defs
     id="defs18" />
  <sodipodi:namedview
     pagecolor="#ffffff"
     bordercolor="#666666"
     borderopacity="1"
     objecttolerance="10"
     gridtolerance="10"
     guidetolerance="10"
     inkscape:pageopacity="0"
     inkscape:pageshadow="2"
     inkscape:window-width="1920"
     inkscape:window-height="1016"
     id="namedview16"
     showgrid="false"
     inkscape:zoom="52.434225"
     inkscape:cx="8"
     inkscape:cy="8.0004997"
     inkscape:window-x="0"
     inkscape:window-y="27"
     inkscape:window-maximized="1"
     inkscape:current-layer="svg14" />
  <circle
     cx="-7.9999962"
     cy="-8.0010195"
     r="7.9999795"
     transform="scale(-1)"
     id="circle2"
     style="fill:#da1636;fill-opacity:1;stroke-width:1.06666398" />
  <g
     transform="matrix(0,-1.066664,-1.066664,0,-0.533316,-0.5323268)"
     id="g14">
    <circle
       cx="-8.0000496"
       cy="-8"
       r="5.7692308"
       id="circle4"
       style="opacity:0.1" />
    <circle
       cx="-8.0000496"
       cy="-8"
       r="5.7692308"
       id="circle6"
       style="fill:#f7f7f7" />
  </g>
  <path
     d="M 7.999996,0.0010052 A 7.9999797,7.9999797 0 0 0 1.6e-5,8.0009849 7.9999797,7.9999797 0 0 0 0.010436,8.3072342 7.9999797,7.9999797 0 0 1 8,0.53433716 7.9999797,7.9999797 0 0 1 15.989563,8.2280676 7.9999797,7.9999797 0 0 0 15.999983,8.0009849 7.9999797,7.9999797 0 0 0 8.000003,0.0010052 Z"
     id="path18"
     inkscape:connector-curvature="0"
     style="opacity:0.3;fill:#ffffff;stroke-width:1.06666398" />
  <path
     d="M 8.000016,16.000999 A 7.9999797,7.9999797 0 0 0 15.999996,8.0010198 7.9999797,7.9999797 0 0 0 15.989546,7.6947699 7.9999797,7.9999797 0 0 1 7.999983,15.467667 7.9999797,7.9999797 0 0 1 0.01042,7.7739366 7.9999797,7.9999797 0 0 0 0,8.0010198 7.9999797,7.9999797 0 0 0 7.999979,16.000999 Z"
     id="path20"
     inkscape:connector-curvature="0"
     style="opacity:0.2;stroke-width:1.06666398" />
  <path
     style="fill:#3b3b3b;fill-opacity:1;fill-rule:evenodd;stroke-width:1.06692266"
     inkscape:connector-curvature="0"
     id="path8-5"
     d="M 5.07921,3.733262 3.73222,5.0802519 6.511234,7.8450755 c 0.08537,0.08645 0.08537,0.2254728 0,0.3119255 l -2.779014,2.764823 1.34699,1.34699 2.764824,-2.764823 c 0.08645,-0.085373 0.225473,-0.085373 0.311925,0 l 2.764823,2.764823 1.34699,-1.34699 -2.764823,-2.764823 c -0.08537,-0.086449 -0.08537,-0.2254727 0,-0.3119255 L 12.267772,5.0802519 10.920782,3.733262 8.155959,6.4980855 c -0.08645,0.085373 -0.225472,0.085373 -0.311925,0 z" />
  <path
     style="fill:#ffffff;fill-opacity:1;fill-rule:evenodd;stroke-width:1.06692266;opacity:0.3"
     d="M 5.0800781 3.7324219 L 3.7324219 5.0800781 L 3.9824219 5.3300781 L 5.0800781 4.234375 L 7.84375 6.9980469 C 7.930203 7.0834199 8.0698 7.0834199 8.15625 6.9980469 L 10.919922 4.234375 L 12.017578 5.3300781 L 12.267578 5.0800781 L 10.919922 3.7324219 L 8.15625 6.4980469 C 8.0698 6.5834199 7.930203 6.5834199 7.84375 6.4980469 L 5.0800781 3.7324219 z M 6.4160156 8.25 L 3.7324219 10.921875 L 3.9824219 11.171875 L 6.5117188 8.65625 C 6.5970887 8.5697973 6.5970888 8.4321531 6.5117188 8.3457031 L 6.4160156 8.25 z M 9.5976562 8.25 L 9.5039062 8.3457031 C 9.4185363 8.4321559 9.4185363 8.569801 9.5039062 8.65625 L 12.017578 11.171875 L 12.267578 10.921875 L 9.5976562 8.25 z "
     id="path818" />
  <path
     id="path823"
     d="m 10.920782,12.268814 1.347656,-1.347656 -0.25,-0.25 -1.097656,1.095703 -2.7636716,-2.763672 c -0.086453,-0.085373 -0.22605,-0.085373 -0.3125,0 l -2.763672,2.763672 -1.097656,-1.095703 -0.25,0.25 1.347656,1.347656 2.763672,-2.765625 c 0.08645,-0.085373 0.226047,-0.085373 0.3125,0 z M 9.5848448,7.7512359 12.268438,5.0793604 l -0.25,-0.25 -2.5292964,2.5156255 c -0.08537,0.086453 -0.08537,0.2240969 0,0.3105469 z m -3.1816406,0 0.09375,-0.095703 c 0.08537,-0.086453 0.08537,-0.2240979 0,-0.3105469 l -2.5136718,-2.5156255 -0.25,0.25 z"
     style="opacity:0.2;fill:#000000;fill-opacity:1;fill-rule:evenodd;stroke-width:1.06692266"
     inkscape:connector-curvature="0" />
</svg>
